pages/main-page/img/lern-shelf.svg

<svg width="142" height="88" viewBox="0 0 142 88" fill="none" xmlns="http://www.w3.org/2000/svg">
<rect width="132.642" height="5.07494" transform="matrix(0.866025 0.5 -2.20305e-08 1 0.548828 16.1113)" fill="#EDEDED"/>
<rect width="132.642" height="30.361" transform="matrix(0.866025 0.5 -0.866025 0.5 26.8413 0.929688)" fill="#F6F6F6"/>
<path d="M115.419 82.4421L141.624 67.201L141.624 72.2644L115.419 87.5056L115.419 82.4421Z" fill="#E3E3E3"/>
<path d="M97.5646 49.0515L79.8702 38.942L79.3872 32.6211L101.316 44.9772C101.316 49.3725 98.887 49.4632 97.5646 49.0515Z" fill="#D9C7AB"/>
<path d="M96.8915 42.4818C95.7973 45.277 95.5476 47.8468 97.5149 49.0223C97.3666 48.9359 96.8865 48.6653 96.176 48.2564C92.7172 46.2682 83.7796 41.1436 80.6475 39.3447C80.3207 39.1554 80.0551 39.0078 79.8658 38.9006C79.6815 38.7933 79.5699 38.7271 79.5498 38.7163C79.1452 38.5018 78.7781 38.2311 78.4556 37.9194C76.4624 36.0039 76.0182 32.4422 77.6991 29.8615C80.6223 25.3596 90.0343 14.0624 90.0343 3.87305L95.2668 6.86758L95.8197 7.1836L96.0442 7.31173L96.9491 7.82785L98.7221 8.83923L99.8465 9.48349L109.213 14.8384C109.213 26.1918 104.399 30.1523 102.979 32.3039C102.236 33.4226 98.5723 38.2153 96.8915 42.4818Z" fill="#F7F1E8"/>
<path d="M93.3516 10.7754L104.777 17.308C104.947 18.0465 104.98 19.2861 104.326 19.6899L92.2783 12.8017C92.7988 12.3893 93.0119 11.9775 93.3516 10.7754Z" fill="#363D54"/>
<path d="M101.13 29.6931L100.874 30.0429L95.9619 27.2089L96.162 26.8145L101.13 29.6931Z" fill="#363D54"/>
<path d="M100.567 30.4647L100.325 30.7966L98.0234 29.4836L98.2408 29.1309L100.567 30.4647Z" fill="#363D54"/>
<path d="M97.6404 28.7857L97.4295 29.1435L92.1113 26.105L92.2618 25.7012L97.6404 28.7857Z" fill="#363D54"/>
<path d="M94.2754 29.9179L94.1163 30.2382L87.3218 26.4734L87.4074 26.0977L94.2754 29.9179Z" fill="#363D54"/>
<path d="M99.0349 32.5646L98.8275 32.8489L95.4292 30.9665L95.6027 30.6562L99.0349 32.5646Z" fill="#363D54"/>
<path d="M99.5201 31.9004L99.302 32.1998L90.625 27.3258L90.7503 26.9551L99.5201 31.9004Z" fill="#363D54"/>
<path d="M95.7833 28.797L95.5984 29.1468L84.9922 23.17L85.0541 22.7266L95.7833 28.797Z" fill="#363D54"/>
<path d="M100.03 31.1983L99.8007 31.5136L95.9697 29.3548L96.159 29.0078L100.03 31.1983Z" fill="#363D54"/>
<path d="M86.9466 36.7185L86.776 37.0691L81.8408 34.235L81.9531 33.8398L86.9466 36.7185Z" fill="#363D54"/>
<path d="M86.5713 37.4921L86.4101 37.8239L84.1016 36.5095L84.2361 36.1582L86.5713 37.4921Z" fill="#363D54"/>
<path d="M83.6335 35.8138L83.5046 36.1708L78.1655 33.1331L78.2317 32.7285L83.6335 35.8138Z" fill="#363D54"/>
<path d="M86.2132 38.2256L86.0606 38.5409L82.2202 36.3821L82.3311 36.0352L86.2132 38.2256Z" fill="#363D54"/>
<path d="M92.6124 36.3711C93.0277 36.3711 93.4294 36.4496 93.8059 36.6036C94.5402 36.9031 95.1016 37.4588 95.3874 38.1707C95.7005 38.9474 95.6422 39.8328 95.2276 40.5995C94.6589 41.6533 93.5028 42.335 92.2827 42.335C91.8681 42.335 91.4657 42.2565 91.0892 42.1025C90.3557 41.803 89.7935 41.2473 89.5077 40.5354C89.1946 39.7594 89.2529 38.8733 89.6675 38.1066C90.2369 37.0528 91.3923 36.3711 92.6124 36.3711Z" fill="#D78383"/>
<path d="M93.5995 37.2202C94.8045 37.7126 95.2659 39.0652 94.6303 40.2436C93.9939 41.4212 92.5024 41.9777 91.2967 41.486C90.0917 40.9936 89.631 39.6411 90.2666 38.4627C90.9022 37.285 92.3944 36.7279 93.5995 37.2202Z" fill="#FFC939"/>
<path d="M92.3491 42.1079C92.3491 42.1079 90.0241 45.3846 90.4214 48.6426C90.4214 48.6426 89.3395 47.0791 89.3395 46.1102C89.3395 46.1102 88.1417 46.6011 87.9747 47.0993C87.9747 47.0993 87.9279 44.1148 90.0867 41.1152L92.3491 42.1079Z" fill="#D78383"/>
<path d="M37.6334 24.0708C37.5587 25.4504 38.0181 26.7764 38.8808 27.6683C41.434 30.3089 45.6209 33.8033 50.2007 34.2231C54.5354 35.0462 59.2385 32.6641 62.7299 30.2155C63.8153 29.4543 64.5092 28.0881 64.5891 26.5941L65.2346 14.6393L38.2205 13.1797L37.6334 24.0708Z" fill="#363D54"/>
<path d="M52.0669 23.1681L52.0557 24.1182L71.4609 13.2443L71.4729 12.2949L52.0669 23.1681Z" fill="#444D69"/>
<path d="M32.9507 11.7984L52.0668 23.1697L71.4728 12.2966L52.3567 0.929688L32.9507 11.7984Z" fill="#363D54"/>
<path d="M32.9507 11.7988L32.9395 12.7497L52.0556 24.1204L52.0668 23.1702L32.9507 11.7988Z" fill="#2E3447"/>
<path d="M53.9308 11.8465C53.938 11.295 53.1523 10.8375 52.1759 10.8247C51.1995 10.8119 50.4021 11.2487 50.3949 11.8002C50.3877 12.3517 51.1734 12.8092 52.1498 12.822C53.1262 12.8348 53.9236 12.398 53.9308 11.8465Z" fill="#FFC939"/>
<path d="M52.0459 12.2942L62.0055 18.53L61.6118 35.3387L62.3162 35.6622L62.8541 17.9362L52.447 11.6309L52.0459 12.2942Z" fill="#FFC939"/>
<path d="M62.4651 35.0015C62.4733 34.8103 62.2477 34.6459 61.9623 34.6355C61.6762 34.6235 61.4387 34.7692 61.4312 34.9604L61.0002 36.8196C60.989 37.1371 61.367 37.4075 61.8473 37.4269C62.3269 37.4449 62.7258 37.2036 62.7377 36.8869C62.74 36.8421 62.7317 36.7995 62.719 36.7576L62.4651 35.0015Z" fill="#FFC939"/>
</svg>

<svg width="142" height="88" fill="none" xmlns="http://www.w3.org/2000/svg"><path fill="#EDEDED" d="M.549 16.111 115.42 82.432v5.075L.55 21.187z"/><path fill="#F6F6F6" d="m26.841.93 114.872 66.32-26.294 15.181L.548 16.111z"/><path d="m115.419 82.442 26.205-15.241v5.063l-26.205 15.242v-5.064Z" fill="#E3E3E3"/><path d="M97.565 49.051 79.87 38.942l-.483-6.32 21.929 12.355c0 4.396-2.429 4.486-3.751 4.075Z" fill="#D9C7AB"/><path d="M96.891 42.482c-1.094 2.795-1.343 5.365.624 6.54-.148-.086-.629-.357-1.339-.766-3.459-1.988-12.396-7.112-15.529-8.911-.326-.19-.592-.337-.781-.444l-.316-.185a4.837 4.837 0 0 1-1.094-.797c-1.994-1.915-2.438-5.477-.757-8.057 2.923-4.502 12.335-15.8 12.335-25.989l5.233 2.995.553.316.224.128.905.516 1.773 1.011 1.125.644 9.366 5.355c0 11.354-4.814 15.314-6.234 17.466-.743 1.119-4.407 5.911-6.088 10.178Z" fill="#F7F1E8"/><path d="m93.352 10.775 11.425 6.533c.17.739.203 1.978-.451 2.382l-12.048-6.888c.52-.413.734-.825 1.074-2.027ZM101.13 29.693l-.256.35-4.912-2.834.2-.395 4.968 2.88ZM100.567 30.465l-.242.332-2.302-1.313.218-.353 2.326 1.334ZM97.64 28.786l-.21.357-5.319-3.038.15-.404 5.38 3.085ZM94.275 29.918l-.159.32-6.794-3.765.085-.375 6.868 3.82ZM99.035 32.565l-.207.284-3.399-1.882.174-.31 3.432 1.908ZM99.52 31.9l-.218.3-8.677-4.874.125-.37 8.77 4.944ZM95.783 28.797l-.185.35-10.606-5.977.062-.443 10.73 6.07ZM100.03 31.198l-.23.316-3.83-2.16.189-.346 3.871 2.19ZM86.947 36.718l-.171.351-4.935-2.834.112-.395 4.994 2.878ZM86.571 37.492l-.16.332-2.31-1.314.135-.352 2.335 1.334ZM83.633 35.814l-.128.357-5.34-3.038.067-.405 5.401 3.086ZM86.213 38.226l-.152.315-3.84-2.159.11-.347 3.882 2.19Z" fill="#363D54"/><path d="M92.612 36.371c.416 0 .817.079 1.194.233.734.3 1.296.855 1.581 1.567a2.853 2.853 0 0 1-.16 2.428c-.568 1.054-1.724 1.736-2.944 1.736a3.14 3.14 0 0 1-1.194-.233 2.831 2.831 0 0 1-1.581-1.567 2.853 2.853 0 0 1 .16-2.428c.569-1.054 1.724-1.736 2.944-1.736Z" fill="#D78383"/><path d="M93.6 37.22c1.205.493 1.666 1.845 1.03 3.024-.636 1.177-2.128 1.734-3.333 1.242s-1.666-1.845-1.03-3.023c.635-1.178 2.127-1.735 3.333-1.243Z" fill="#FFC939"/><path d="M92.35 42.108s-2.326 3.277-1.929 6.535c0 0-1.082-1.564-1.082-2.533 0 0-1.197.491-1.364.99 0 0-.047-2.985 2.112-5.985l2.262.993Z" fill="#D78383"/><path d="M37.633 24.07c-.074 1.38.385 2.706 1.248 3.598 2.553 2.64 6.74 6.135 11.32 6.555 4.334.823 9.038-1.559 12.529-4.008 1.085-.76 1.78-2.127 1.86-3.62l.645-11.956-27.014-1.46-.588 10.892Z" fill="#363D54"/><path d="m52.067 23.168-.011.95L71.46 13.244l.012-.95-19.406 10.874Z" fill="#444D69"/><path d="M32.95 11.798 52.068 23.17l19.406-10.873L52.357.93 32.95 11.798Z" fill="#363D54"/><path d="m32.95 11.799-.01.95L52.056 24.12l.01-.95L32.952 11.8Z" fill="#2E3447"/><path d="M53.93 11.847c.008-.552-.778-1.01-1.754-1.022-.977-.013-1.774.424-1.781.975-.007.552.778 1.01 1.755 1.022.976.013 1.774-.424 1.78-.975Z" fill="#FFC939"/><path d="m52.046 12.294 9.96 6.236-.394 16.809.704.323.538-17.726-10.407-6.305-.401.663Z" fill="#FFC939"/><path d="M62.465 35.002c.008-.192-.217-.356-.503-.367-.286-.011-.523.134-.53.325L61 36.82c-.011.317.367.587.847.607.48.018.879-.223.89-.54a.376.376 0 0 0-.018-.13l-.254-1.755Z" fill="#FFC939"/></svg>
